X: 813
T: Wellington's Advance
N:"Collected by J.O'Neill"
B:O'Neill's 813
Z:Transcribed by Dan G. Petersen, dangp@post6.tele.dk
M:6/8
L:1/8
K:A
EAA AGA|{d}cBA c2d|efe efg|dBG GFG|
EAA AGA|{d}cBA c2d|efe dcB|cAA A2:|
(3(e/2f/2g/2)|aee aee|aed {d}cBA|BAB gfe|dBG GFG|
eaa aga|e=gg gfg|efe dcB|cAA A2:|


